assets/Atlassian Icon.svg

<svg width="48" height="48" viewBox="0 0 48 48" fill="none" xmlns="http://www.w3.org/2000/svg">
<g opacity="0.2">
<path fill-rule="evenodd" clip-rule="evenodd" d="M0 24C0 10.7452 10.7452 0 24 0C37.2548 0 48 10.7452 48 24C48 37.2548 37.2548 48 24 48C10.7452 48 0 37.2548 0 24ZM19.0917 20.6362C18.7344 20.2544 18.1775 20.2761 17.9346 20.7619L12.074 32.4833C11.9654 32.7005 11.977 32.9584 12.1046 33.165C12.2323 33.3716 12.4578 33.4973 12.7007 33.4973H20.8624C21.1295 33.5035 21.3752 33.3517 21.4891 33.1099C23.249 29.4712 22.1828 23.9388 19.0917 20.6362ZM23.3918 9.97536C20.1139 15.1688 20.3302 20.9207 22.4892 25.239L26.4247 33.1099C26.5434 33.3473 26.786 33.4972 27.0513 33.4972H35.2129C35.4558 33.4972 35.6813 33.3715 35.809 33.1649C35.9366 32.9583 35.9482 32.7004 35.8395 32.4832C35.8395 32.4832 24.8597 10.5204 24.5835 9.9709C24.3366 9.47897 23.7093 9.47228 23.3918 9.97536Z" fill="#7B7989"/>
</g>
</svg>

<svg width="48" height="48" fill="none" xmlns="http://www.w3.org/2000/svg"><path fill-rule="evenodd" clip-rule="evenodd" d="M0 24C0 10.745 10.745 0 24 0s24 10.745 24 24-10.745 24-24 24S0 37.255 0 24Zm19.092-3.364c-.358-.382-.915-.36-1.157.126l-5.861 11.721a.7.7 0 0 0 .627 1.014h8.161a.675.675 0 0 0 .627-.387c1.76-3.639.694-9.171-2.397-12.474Zm4.3-10.66c-3.278 5.193-3.062 10.945-.903 15.263l3.936 7.87a.7.7 0 0 0 .626.388h8.162a.7.7 0 0 0 .627-1.014S24.86 10.52 24.583 9.971c-.246-.492-.874-.499-1.191.004Z" fill="#7B7989" opacity=".2"/></svg>
